X: 131
T: 7. La petite provence
T: la Petite Provence
B: Robert Landrin "Potpourri fran\,cois des contre-danse ancienne tel quil se danse chez la Reine ..." 1760 p.13 #1 dance 04 #7
S: http://memory.loc.gov/cgi-bin/query/D?musdibib:2:./temp/~ammem_EbRS:
Z: 2014 John Chambers <jc:trillian.mit.edu>
M: 2/2
L: 1/8
K: D
% - - - - - - - - - - - - - - - - - - - - - - - - -
D2F2 |\
A2d2 c2ec | [A4F4] E2G2 | F2ED E2DC | D2A,2 D2F2 |\
A2d2 c2ec | [A4F4] E2G2 | F2ED E2DC | D4 :|
|: "2.f."D2D2 |\
E2E2 A2AD | C2A,2 D2D2 | E2E2 A2AC | D4 :: "2.f."D3F |\
EDCB, A,2AG | F4 D3F | EDCB, A,2B,C | D4 :|
[K:Dphr]\
|: d4 |\
"2.f'"c2BA B2c2 | A2F2 B4 | G2FE F2A2 | F2D2 d4 |\
c2BA B2c2 | A2F2 B4 | G2FE F2A2 | D4 :|
|: "4.f."DEFD | EFGE FGAD | ^C2A,2 DEFD | EFGE FGAA, | D4 :|
% - - - - - - - - - - - - - - - - - - - - - - - - -

%%sep 1 1 500
%%sep 1 1 500
